X: 4
T: Within A Mile Of Dublin
R: reel
M: 4/4
L: 1/8
K: Dmix
|FG|:ADDE FEFG|ADDB c2Bc|ADDE FEFG|ABcA G2 FG:|||Addc AGFG|Adde fgec|Addc AGFG|ABcA G2 FG|Addc AGFG|Adde fefg|af (3gfe fde^c|dcAF G2 FG||


Tune 125	Setting 12729

